app/dist/common/images/medigene-ag.svg

<svg height="18" viewBox="0 0 18 18" width="18" xmlns="http://www.w3.org/2000/svg"><path d="m0 0h18v18h-18z" fill="#f0f3fa"/><path d="m14 7.66v5.34h-2v-5.26c.04-.53-.13-1.06-.7-.98-.5 0-.84.09-1.3.3v5.94h-2v-5.26c.04-.53-.1-1.1-.82-1.1-.52 0-.7.22-1.18.42v5.94h-2v-8h1l.34.57a3.88 3.88 0 0 1 1.84-.57c.78 0 1.48.17 2.04.74a3.8 3.8 0 0 1 2.08-.74c1.8 0 2.7.9 2.7 2.66z" fill="#1a171b"/></svg>

<!-- by TradingView --><svg width="18" height="18" viewBox="0 0 18 18" xmlns="http://www.w3.org/2000/svg"><path fill="#F0F3FA" d="M0 0h18v18H0z"/><path d="M14 7.66V13h-2V7.74c.04-.53-.13-1.06-.7-.98-.5 0-.84.09-1.3.3V13H8V7.74c.04-.53-.1-1.1-.82-1.1-.52 0-.7.22-1.18.42V13H4V5h1l.34.57A3.88 3.88 0 0 1 7.18 5c.78 0 1.48.17 2.04.74A3.8 3.8 0 0 1 11.3 5C13.1 5 14 5.9 14 7.66Z" fill="#1A171B"/></svg>
